!!!!SEGMENT: pl-wtm--r-881-m_moniuszko-stanislaw--sabaudczyk.krn
!!!cenid: 18xx:2869
!!!COM: Moniuszko, Stanisław
!!!COM-rismID:
!!!CDT: 1819/05/05-1872/06/04
!!!CNT: Polish
!!!OTL: Sabaudczyk
!!!PDT:
!!!AGN:
!!!SMS-siglum: PL-Wtm
!!!SMS-shelfmark: R 881/M
!!!SMS-shelfwork: W
!!!SMS-variant:
!!!SMS-altvar:
!!!NIFC-rismSourceID: 1001099294
!!!NIFC-islandoraID:
!!!URL-pdf-islandora:
!!!URL-scan:
!!!ONB-nifc:
!!!AIN: 1 empty 1 forte 1 piano
!!!key:
**kern	**kern	**dynam	**kern	**text	**text
*part3	*part2	*part2	*part1	*part1	*part1
*staff3	*staff2	*	*staff1	*staff1	*staff1
*Ipiano	*Iforte	*	*Iempty	*	*
*I"pian.	*I"Forte:	*	*I"Śpiew.	*	*
*	*I'pf	*	*I'voce umana.	*	*
*clefF4	*clefG2	*	*clefG2	*	*
*k[f#c#]	*k[f#c#]	*	*k[f#c#]	*	*
*b:	*b:	*	*b:	*	*
*M2/4	*M2/4	*	*M2/4	*	*
*	*	*below	*	*	*
=1	=1	=1	=1	=1	=1
!	!LO:TX:b:B:t=allegretto	!	!LO:TX:a:B:t=allegretto.	!	!
8B\L 8F#\ 8D\ 8BB'\	2r	p	2r	.	.
8B\ 8F#\ 8D\ 8BB'\	.	.	.	.	.
8B\ 8F#\ 8D\ 8BB'\	.	.	.	.	.
8B\J 8F#\ 8D\ 8BB'\	.	.	.	.	.
=2	=2	=2	=2	=2	=2
8B\L 8F#\ 8D\ 8BB'\	4r	.	2r	.	.
8B\ 8F#\ 8D\ 8BB'\	.	.	.	.	.
8B\ 8F#\ 8D\ 8BB'\	8r	.	.	.	.
*	*8va	*	*	*	*
8B\J 8F#\ 8D\ 8BB'\	(16fff#\LL 16ddd\	.	.	.	.
.	16ggg\JJ 16eee\)	.	.	.	.
=3	=3	=3	=3	=3	=3
8B\L 8F#\ 8D\ 8BB'\	8fff#\L 8ddd'\	.	2r	.	.
8B\ 8G\ 8E\ 8BB'\	8eee\ 8ccc#'\	.	.	.	.
8B\ 8F#\ 8D\ 8BB'\	8ddd\J 8bb'\	.	.	.	.
8B\J 8F#\ 8D\ 8BB'\	(16ddd\LL 16bb\	.	.	.	.
.	16eee\JJ 16ccc#\	.	.	.	.
=4	=4	=4	=4	=4	=4
8B\L 8F#\ 8D\ 8BB'\	8ddd\L 8bb\)	.	2r	.	.
8A#X\ 8F#\ 8E\ 8BB'\	8ccc#\ 8ff#'\	.	.	.	.
8B\ 8F#\ 8D\ 8BB'\	8bb\J 8dd'\	.	.	.	.
8B\J 8F#\ 8D\ 8BB'\	(16bb\LL 16dd\	.	.	.	.
.	16ccc#\JJ 16ff#\	.	.	.	.
!!LO:LB:g=original
=5	=5	=5	=5	=5	=5
8B\L 8F#\ 8D\ 8BB'\	8ddd\L 8bb\)	.	2r	.	.
8B\ 8F#\ 8D\ 8BB'\	8bb\ 8dd'\	.	.	.	.
8A#X\ 8F#\ 8E\ 8BB'\	8ccc#\ 8ee'\	.	.	.	.
8A#\J 8F#\ 8E\ 8BB'\	8aa#X\J 8ee'\	.	.	.	.
=6	=6	=6	=6	=6	=6
8B\L 8F#\ 8D\ 8BB'\	(>4bb/ [4dd/	>	2r	.	.
8B\ 8F#\ 8D\ 8BB'\	.	.	.	.	.
8B\ 8F#\ 8D\ 8BB'\	8ff#/ 8dd/])	.	.	.	.
8B\J 8F#\ 8D\ 8BB'\	(16fff#\LL 16ddd\	]	.	.	.
.	16ggg\JJ 16eee\	.	.	.	.
=7	=7	=7	=7	=7	=7
8B\L 8F#\ 8D\ 8BB'\	8fff#\L 8ddd\)	.	2r	.	.
8B\ 8F#\ 8D\ 8BB'\	8eee\ 8ccc#'\	.	.	.	.
8B\ 8F#\ 8D\ 8BB'\	8ddd\J 8bb'\	.	.	.	.
8B\J 8F#\ 8D\ 8BB'\	(16ddd\LL 16bb\	.	.	.	.
.	16eee\JJ 16ccc#\	.	.	.	.
=8	=8	=8	=8	=8	=8
8B\L 8F#\ 8D\ 8BB'\	8ddd\L 8bb\)	.	2r	.	.
8A#X\ 8F#\ 8E\ 8BB'\	8ccc#\ 8ff#'\	.	.	.	.
8B\ 8F#\ 8D\ 8BB'\	8bb\J 8dd'\	.	.	.	.
8B\J 8F#\ 8D\ 8BB'\	(16bb/LL 16dd/	.	.	.	.
.	16ccc#/JJ 16ff#/	.	.	.	.
=9	=9	=9	=9	=9	=9
!LO:TX:t=P:problem=mixed beam	!	!	!	!	!
8B\L 8F#\ 8BB'\	8ddd/L 8bb/)	.	2r	.	.
8D'\	8ddd/ 8bb/ 8ff#'/	.	.	.	.
8F#'\	8ccc#/ 8bb/ 8ee'/	.	.	.	.
8FF#'/J	8ccc#/J 8aa#X/ 8ee'/	.	.	.	.
!!LO:LB:g=original
=10	=10	=10	=10	=10	=10
8BB\L	4bb/ 4dd/	.	2r	.	.
8F#\ 8BB\	.	.	.	.	.
*	*X8va	*	*	*	*
8F#\ 8BB\	8r	.	.	.	.
8F#\J 8BB\	8d/	.	.	.	.
=11	=11	=11	=11	=11	=11
8F#\L 8BB\	8d/L	.	4r	.	.
8F#\ 8BB\	8d/	.	.	.	.
8F#\ 8BB\	8d/	.	8r	.	.
8F#\J 8BB\	8f#/J 8d/	.	8f#/	Chcąc	Gdzie
=12	=12	=12	=12	=12	=12
8F#\L 8BB\	8dd/L 8f#/ 8d/	.	8dd\	poz-	spoj-
8F#\ 8BB\	8b/ 8e/	.	8b\	-nać	-rzę
8F#\ 8BB\	8a#X/ 8c#/	.	8a#X\	miast	tam
8F#\J 8BB\	8cc#/J 8e/	.	8cc#\	u-	ros-
=13	=13	=13	=13	=13	=13
8F#\L 8BB\	(16f#/LL 16d/	.	4b/	-cie-	-ko-
.	16g/ 16e/	.	.	.	.
8F#\ 8BB\	16f#/ 16d/	.	.	.	.
.	16e/JJ 16c#/	.	.	.	.
8F#\ 8BB\	8d/L 8B/)	.	8f#/	-chy	-sze
8B\J 8BB\	8f#/J 8d'/	.	8r	.	.
=14	=14	=14	=14	=14	=14
8B\L 8BB\	8g/L 8e'/	.	8g/	wszyst-	i
8B\ 8BB\	8b/ 8g'/	.	8b/	-ko	zło-
8B\ 8BB\	8a/ 8f#'/	.	8a/	o-	-ta
8B\J 8BB\	8g/J 8e'/	.	8g/	-puś-	wi-
!!LO:LB:g=original
=15	=15	=15	=15	=15	=15
8F#\L 8BB'\	(4f#/ 4d/	.	[>4f#/	-ci-	-dzę
8B\ 8F#'\	.	.	.	.	.
8F#\ 8BB'\	8d/L 8B/)	.	8f#/]	łem	zdrój
8B\J 8F#'\	8f#/J 8d/	.	8f#/	was	ja
=16	=16	=16	=16	=16	=16
8A#X\L 8F#'\	8e/L 8c#'/	.	8f#/	gó-	sro-
8A#\ 8F#'\	8e/ 8c#'/	.	8a#X/	-ry	-gie
8A#\ 8F#'\	8e/ 8c#'/	.	8cc#\	lu-	mę-
8A#\J 8F#'\	8e/J 8c#'/	.	8ee\	-be	-ki
=17	=17	=17	=17	=17	=17
8B\L 8F#\ 8BB'\	8d'/L	.	4ee\	strze-	zno-
8B'\	8f#/ 8d'/	.	.	.	.
!	!	!	!LO:TX:t=P:problem=druga sylaba w drugiej zwrotce przypada przednutce Albo raczej tekst przesunięty o jedno w lewo.	!	!
8B\ 8G'\	8b/ 8d'/	.	8dd\	-chy	-szę i
.	.	.	8qqdd/	.	.
8B\J 8G'\	8dd/J 8g'/	.	8r	.	.
=18	=18	=18	=18	=18	=18
.	.	.	8qdd\	.	.
8E'\L	8cc#/L 8g/ 8e'/	.	8cc#\	gdzie	los
8G'\	8b/ 8g/ 8d'/	.	8b\	się	prze-
8E'\	8cc#/ 8g/ 8e'/	.	8cc#\	u-	-kli-
8F#'\J	8a#X/J 8f#/ 8c#'/	.	8a#X/	-ro-	-nam
=19	=19	=19	=19	=19	=19
*^	*	*	*	*	*
8BB\L	4ryy	8b/L 8d/	.	8b\	-dzi-	swój
8B\J	.	8d/J	.	8b\	-łem	.
!LO:TX:a:t=ten	!	!	!	!	!	!
4B/ 4D^^/	8GG\L	4dd/ 4b/ 4d/	.	4dd\	ach	Od
.	8GG\J	.	.	.	.	.
*v	*v	*	*	*	*	*
!!LO:PB:g=original
=20	=20	=20	=20	=20	=20
8D/L 8GG/	8cc#/L 8g/ 8d/	.	8cc#\	Łzy	dro-
8G/ 8GG/	8b/ 8g/ 8d/	.	8b\	twe	-giej
8G/ 8GG/	8a/ 8d/ 8B/	.	8a\	dro-	mat-
8G/J 8GG/	8g/J 8d/ 8B/	.	8g/	-ga	-ki
=21	=21	=21	=21	=21	=21
8G/L 8GG/	8f#/L 8cn/	.	4f#/	mat-	zda-
8G/ 8GG/	8c/	.	.	.	.
8G/ 8GG/	8e/ 8c/	.	8e/	-ko	-la
8G/J 8GG/	8e/J 8c/	.	8f#/	nie	ja
=22	=22	=22	=22	=22	=22
8G/L 8GG/	8e/L 8cn/	.	8g/	mog-	nedz-
8G/ 8GG/	8e/ 8c/	.	8g#X/	-ły	-ny
8G/ 8GG/	8f#/ 8c/ 8A/	.	8.b/	wstrzy-	pę-
8G/J 8GG/	8f#/J 8c/ 8A/	.	.	.	.
.	.	.	16a/	-mać	-dzę
=23	=23	=23	=23	=23	=23
*^	*	*	*	*	*
8G/L 8GG/	4ryy	8g/ 8B/	.	8g/	mię	dzień
8D/J 8GG/	.	8r	.	8r	.	.
4B/ 4D^/	8GG\L	4dd/ 4g/ 4d/	.	4dd\	ro-	gdy
.	8GG\J	.	.	.	.	.
*v	*v	*	*	*	*	*
=24	=24	=24	=24	=24	=24
8G\L 8GG\	8g/L 8d/ 8B/	.	8.ee\	-dzi-	zim-
8G\ 8GG\	8g/ 8d/ 8B/	.	.	.	.
.	.	.	16dd\	-mia	-no
8G\ 8GG\	8g/ 8d/ 8B/	.	8ccn\	mo-	głod
8G\J 8GG\	8g/J 8d/ 8B/	.	8b\	-ja	przy-
!!LO:LB:g=original
=25	=25	=25	=25	=25	=25
8G/L 8GG/	8e/L 8cn/	.	4b\	chat-	-wa-
8G/ 8GG/	8e/ 8c/	.	.	.	.
8G/ 8GG/	8e/ 8c/	.	8a\	-ko	-la
8G/J 8GG/	8e/J 8c/	.	8a\	już	ja
=26	=26	=26	=26	=26	=26
8GG/L	8f#/L 8c#/ 8A/	.	8a\	nie	błą-
8GG/	8f#/ 8c#/ 8A/	.	8ccn\	zo-	-kam
8GG/	8f#/ 8c#/ 8A/	.	8b\	-ba-	się
8GG/J	8f#/J 8c#/ 8A/	.	8a\	-czę	jak
=27	=27	=27	=27	=27	=27
!LO:TX:t=P:problem=mixed beam	!	!	!	!	!
8GG/L	8g/L 8d/ 8B/	.	4g/	cię	cień
8G\	8g/ 8d/ 8B/	.	.	.	.
8G\	8g/ 8d/ 8B/	.	8r	.	.
8G\J	8g/J 8d/ 8B/	.	8b\	Nie-	.
=28	=28	=28	=28	=28	=28
8D#X\L	8b/L 8f#/ 8B/	.	8.b\	-win-	.
8D#\	8f#/ 8B/	.	.	.	.
.	.	.	16f#/	-ne	.
8D#\	8f#/ 8B/	.	8f#/	mo-	.
8D#\J	8f#/J 8B/	.	8f#/	-je	.
=29	=29	=29	=29	=29	=29
8E\L	8a/L 8e/ 8B/	.	4a/	spiew-	.
8E\	8a/ 8e/ 8B/	.	.	.	.
8E\	8g/ 8e/ 8B/	.	8g/	-ki	.
8E\J	8g/J 8e/ 8B/	.	8g/	i	.
!!LO:LB:g=original
=30	=30	=30	=30	=30	=30
8A#\L 8F#\	8f#/L 8e/ 8c#/	.	8f#/	Fle-	.
8A#\ 8F#\	8f#/ 8e/ 8c#/	.	8a#X/	-tu	.
8A#\ 8F#\	8f#/ 8e/ 8c#/	.	8cc#\	lu-	.
8A#\J 8F#\	8f#/J 8e/ 8c#/	.	8ee\	-by	.
=31	=31	=31	=31	=31	=31
8B\L 8BB\	8f#/L 8d#X/	.	4dd#X\	wtór	.
8B\	8f#/ 8d#/	.	.	.	.
8B\	8f#/ 8d#/	.	8r	.	.
8B\J	8f#/J 8d#/	.	16b\LL	wyś-	.
.	.	.	16cc#\JJ	.	.
=32	=32	=32	=32	=32	=32
8D#X\L	8b/L 8f#/ 8B/	.	8.b\	-cie	.
8D#\	8f#/ 8B/	.	.	.	.
.	.	.	16f#/	sło-	.
8D#\	8f#/ 8B/	.	8f#/	-dzi-	.
8D#\J	8f#/J 8B/	.	8f#/	-li	.
=33	=33	=33	=33	=33	=33
8E\L	8a/L 8e/ 8B/	.	(>4a/	zno-	.
8E\	8a/ 8e/ 8B/	.	.	.	.
8E\	8g/ 8e/ 8B/	.	8g/)	-je	.
8E\J	8g/J 8e/ 8B/	.	8g/	już	.
=34	=34	=34	=34	=34	=34
*	*^	*	*	*	*
*	*	*2\right	*	*	*	*
(4G\	(4b/	(2B\	.	8b/	nie	.
.	.	.	.	8b/	u-	.
8F#\L	8a/L 8d#X/	.	.	8a/	-sły-	.
8E\J	8g/J 8e/	.	.	8g/	-szę	.
*	*v	*v	*	*	*	*
!!LO:LB:g=original
=35	=35	=35	=35	=35	=35
4F#\)	8f#/ 8A#X/))	.	4f#/	was	.
*	*8va	*	*	*	*
.	(16fff#\LL	.	.	.	.
.	16ggg\JJ)	.	.	.	.
8r	[4ggg\	.	4r	.	.
*8va	*	*	*	*	*
8f#\ 8d\ 8B'\	.	.	.	.	.
=36	=36	=36	=36	=36	=36
8f#\ 8c#\ 8A#X\ 8F#\	8ggg\L]	.	2r	.	.
8r	(16fff#\L	.	.	.	.
.	16ggg\JJ)	.	.	.	.
8r	[4fff#\	.	.	.	.
8f#\ 8d\ 8B\	.	.	.	.	.
=37	=37	=37	=37	=37	=37
8f#\ 8c#\ 8A#X\ 8F#\	8fff#\L]	.	2r	.	.
*X8va	*	*	*	*	*
8r	(16fff#\L 16ff#\	.	.	.	.
.	16ggg\JJ)	.	.	.	.
4r	8fff#\L 8ff#'\	.	.	.	.
.	(16fff#\L 16ff#\	.	.	.	.
.	16ggg\JJ)	.	.	.	.
=38	=38	=38	=38	=38	=38
2r	8fff#\L 8ff#'\	.	4r	.	.
.	(16fff#\L 16ff#\	.	.	.	.
.	16ggg\JJ)	.	.	.	.
.	8fff#\L 8ff#'\	.	8r	.	.
.	(16fff#\L 16ff#\	.	8f#/	a	.
.	16ggg\JJ)	.	.	.	.
!!LO:PB:g=original
=39	=39	=39	=39	=39	=39
8B\L 8F#\ 8D\ 8BB\	8fff#\L 8ff#'\	.	4dd\	dro-	.
8B\ 8F#\ 8D\ 8BB\	(16fff#\L 16ff#\	.	.	.	.
.	16ggg\JJ)	.	.	.	.
8A#X\ 8F#\ 8E\ 8BB\	8fff#\L 8ff#'\	.	8cc#X\	-ga	.
8A#\J 8F#\ 8E\ 8BB\	(16fff#\L 16ff#\	.	8a#X\	ma	.
.	16ggg\JJ)	.	.	.	.
=40	=40	=40	=40	=40	=40
8B\L 8F#\ 8D\ 8BB\	8fff#\L 8ff#'\	.	4b\	chat-	.
8B\ 8F#\ 8D\ 8BB\	8bbb\ 8bb'\	.	.	.	.
8B\ 8F#\ 8D\ 8BB\	8fff#\J 8ff#'\	.	8f#/	-ko	.
8B\J 8F#\ 8D\ 8BB\	(16ddd\LL	.	8f#/	i	.
.	16eee\JJ	.	.	.	.
=41	=41	=41	=41	=41	=41
8B\L 8F#\ 8D\ 8BB\	8fff#\L)	.	8dd\L	ty	.
8B\ 8F#\ 8D\ 8BB\	8ddd'\	.	8b\J	.	.
8A#X\ 8F#\ 8BB\	8ccc#X'\	.	8a#X\	lu-	.
8A#\J 8F#\ 8BB\	8eee'\J	.	8cc#\	-ba	.
*	*X8va	*	*	*	*
=42	=42	=42	=42	=42	=42
8B\L 8F#\ 8D\ 8BB\	(16ddd\LL	>	4b\	mat-	.
.	16bb\	.	.	.	.
8B\ 8F#\ 8D\ 8BB\	16ff#\	.	.	.	.
.	16dd\JJ	.	.	.	.
8B\ 8F#\ 8D\ 8BB\	8b\)	.	8b\	-ko	.
!	!	!LO:DY:t=fo	!	!	!
8B\J 8F#\ 8D\ 8BB\	8bb\ 8b\	] f	8b\	na	.
=43	=43	=43	=43	=43	=43
!	!LO:TX:b:t=ritar.	!	!LO:TX:a:t=ritar.	!	!
8c#\L 8G\ 8E\	8ccc#\L 8cc#\	.	8cc#\	zaw-	.
8c#\ 8G\ 8E\	8bb\ 8b\	.	8b\	-sze	.
8c#\ 8G\ 8E\	8aa\ 8a\	.	8a\	żeg-	.
8c#\J 8G\ 8E\	8gg\J 8g\	.	8g\	-nam	.
!!LO:LB:g=original
=44	=44	=44	=44	=44	=44
8.d\L 8.B\ 8.G\	(8.f#\L	>	[4f#/	was	.
(32B\LL	32b\LL	.	.	.	.
32d\JJJ	32dd\JJJ	.	.	.	.
8f#\)	8ff#\)	.	16f#/LL]	.	.
.	.	.	16g/JJ	.	.
8r	8r	]	16a/LL	na	.
.	.	.	16g/JJ	.	.
=45	=45	=45	=45	=45	=45
*	*^	*	*	*	*
2C#/ 2FF#/	4r	2e\ 2A#X\	p	8.f#/	zaw-	.
.	.	.	.	16c#/	-sze	.
.	8.g/L	.	.	8.e/	żeg-	.
.	16f#/Jk	.	.	16d/	-nam	.
*	*v	*v	*	*	*	*
=46	=46	=46	=46	=46	=46
8BB\L	8d/ 8B/	.	4B/	was!	.
!	!LO:TX:b:t=a    tempo	!	!	!	!
8B\ 8F#\ 8D\ 8BB\	8r	.	.	.	.
!	!	!	!LO:TX:a:t=a tempo	!	!
8B\ 8F#\ 8D\ 8BB\	8r	.	4r	.	.
*	*8va	*	*	*	*
8B\J 8F#\ 8D\ 8BB\	(16fff#\LL 16ddd\	.	.	.	.
.	16ggg\JJ 16eee\	.	.	.	.
=47	=47	=47	=47	=47	=47
8B\L 8F#\ 8D\ 8BB\	8fff#\L 8ddd\)	.	2r	.	.
8B\ 8F#\ 8D\ 8BB\	8eee\ 8ccc#'\	.	.	.	.
8B\ 8F#\ 8D\ 8BB\	8ddd\J 8bb'\	.	.	.	.
8B\J 8F#\ 8D\ 8BB\	(16ddd\LL 16bb\	.	.	.	.
.	16eee\JJ 16ccc#\	.	.	.	.
=48	=48	=48	=48	=48	=48
8B\L 8F#\ 8D\ 8BB\	8ddd\L 8bb\)	.	2r	.	.
8A#X\ 8F#\ 8E\ 8BB\	8ccc#\ 8ff#'\	.	.	.	.
8B\ 8F#\ 8D\ 8BB\	8bb\J 8dd'\	.	.	.	.
8B\J 8F#\ 8D\ 8BB\	(16bb\LL 16dd\	.	.	.	.
.	16ccc#\JJ 16ff#\	.	.	.	.
!!LO:LB:g=original
=49	=49	=49	=49	=49	=49
8B\L 8F#\ 8D\ 8BB\	8ddd\L 8bb\)	.	2r	.	.
8B\ 8F#\ 8D\ 8BB\	8bb\ 8dd'\	.	.	.	.
8A#X\ 8F#\ 8E\ 8BB\	8ccc#\ 8ee'\	.	.	.	.
8A#\J 8F#\ 8E\ 8BB\	8aa#X\J 8ee'\	.	.	.	.
=50	=50	=50	=50	=50	=50
8B\L 8F#\ 8D\ 8BB\	(>4bb/ [4dd/	>	2r	.	.
8B\ 8F#\ 8D\ 8BB\	.	.	.	.	.
8B\ 8F#\ 8D\ 8BB\	8ff#/ 8dd/])	.	.	.	.
8B\J 8F#\ 8D\ 8BB\	(16fff#\LL 16ddd\	]	.	.	.
.	16ggg\JJ 16eee\	.	.	.	.
=51	=51	=51	=51	=51	=51
8B\L 8F#\ 8D\ 8BB\	8fff#\L 8ddd\)	.	2r	.	.
8B\ 8G\ 8E\ 8BB\	8eee\ 8ccc#'\	.	.	.	.
8B\ 8F#\ 8D\ 8BB\	8ddd\J 8bb'\	.	.	.	.
8B\J 8F#\ 8D\ 8BB\	(16ddd\LL 16bb\	.	.	.	.
.	16eee\JJ 16ccc#\	.	.	.	.
=52	=52	=52	=52	=52	=52
8B\L 8F#\ 8D\ 8BB\	8ddd\L 8bb\)	.	2r	.	.
8A#X\ 8F#\ 8E\ 8BB\	8ccc#\ 8ff#'\	.	.	.	.
8B\ 8F#\ 8D\ 8BB\	8bb\J 8dd'\	.	.	.	.
8B\J 8F#\ 8D\ 8BB\	(>16bb/LL 16dd/	.	.	.	.
.	16ddd/JJ 16ff#/	.	.	.	.
=53	=53	=53	=53	=53	=53
!LO:TX:t=P:problem=mixed beam	!	!	!	!	!
8B\L 8F#\ 8BB\	8ddd/L 8bb/)	.	2r	.	.
8D\	8ddd/ 8bb/ 8ff#'/	.	.	.	.
8F#\	8ccc#/ 8bb/ 8ee'/	.	.	.	.
8FF#/J	8ccc#/J 8aa#X/ 8ee'/	.	.	.	.
*	*X8va	*	*	*	*
!!LO:LB:g=original
=54:|!	=54:|!	=54:|!	=54:|!	=54:|!	=54:|!
8BB/	8b/ 8d/	.	2r	.	.
8r	8r	.	.	.	.
8G\	8b/ 8g/ 8d/	p	.	.	.
8r	8r	.	.	.	.
=55	=55	=55	=55	=55	=55
8E\	8cc#/ 8b/ 8g/ 8c#/	.	2r	.	.
8r	8r	.	.	.	.
8F#/ 8FF#/	8ff#\ 8ee\ 8cc#\ 8a#X\ 8f#\	pp	.	.	.
8r	8r	.	.	.	.
=56	=56	=56	=56	=56	=56
!	!	!	!LO:TX:b:t=Krakań 18 5/1 93	!	!
!	!	!	!LO:TX:a:t=problem na końcu podpis ciężki do odczytania	!	!
8BB/ 8BBB/	8ddd\ 8bb\ 8ff#\ 8dd\	ppp	2r	.	.
8r	8r	.	.	.	.
4r	4r	.	.	.	.
==	==	==	==	==	==
*-	*-	*-	*-	*-	*-
!!!system-decoration: s1,{s2,s3}
!!!RDF**kern: > = above
!!!RDF**kern: < = below
!!!ENC: Tomasz Grochalski
!!!END: 2021-08-08
!!!ENC: Leszek Kubiak
!!!END: 2021-09-08
